X: 38561
T: Sting In The Tale
R: reel
M: 4/4
K: Amixolydian
|:c2cB cecA-|Addc dfed|c2cB cedc|dBBB -Bfed|
c2cB cecA-|Addc dfed|caaa -afed|ceA2 A2e2:|
|:c2Bc -cedc|d2cd -dfed|c2cB cedc|dBBB -Bfed|
c2Bc -cedc-|cddc dfed|caaa -afed|1 ceA2 A2e2:|2 c2Ad -dBe2|edBG A||

